icons/contraceptive_voucher.svg

<svg width="48" height="48" viewBox="0 0 48 48" fill="none" xmlns="http://www.w3.org/2000/svg">
<path d="M21.3465 25.6737L19.4277 23.755C19.1955 24.2962 19.122 24.9278 19.279 25.6085L19.9598 28.5616C20.1691 29.4695 19.1323 30.1451 18.3862 29.5869L17.9007 29.2236C15.7169 27.5896 12.6622 29.4815 13.1522 32.1646L13.4113 33.5833L15.3788 33.224L15.1197 31.8053C14.9564 30.9109 15.9746 30.2803 16.7025 30.825L17.1881 31.1883C19.4262 32.8629 22.5366 30.8361 21.9087 28.1123L21.3465 25.6737Z" fill="black"/>
<path fill-rule="evenodd" clip-rule="evenodd" d="M29.6336 25.4755C29.9494 24.9375 30.1011 24.2818 30.0005 23.5541L29.7063 21.4249C30.9561 21.5301 32.3704 21.0065 33.4694 19.9075C35.2281 18.1489 35.5132 15.5827 34.1063 14.1758C32.6994 12.7689 30.1332 13.054 28.3746 14.8126C26.7062 16.481 26.3639 18.8763 27.5345 20.3189L28.0193 23.8279C28.0211 23.8406 28.0226 23.8533 28.0239 23.8659L29.6336 25.4755ZM29.7888 16.2268C31.0772 14.9385 32.3444 15.2423 32.6921 15.59C33.0398 15.9377 33.3436 17.2049 32.0552 18.4933C30.7669 19.7817 29.4996 19.4778 29.1519 19.1301C28.8042 18.7825 28.5004 17.5152 29.7888 16.2268Z" fill="black"/>
<path fill-rule="evenodd" clip-rule="evenodd" d="M43 24C43 34.4934 34.4934 43 24 43C13.5066 43 5 34.4934 5 24C5 13.5066 13.5066 5 24 5C34.4934 5 43 13.5066 43 24ZM35.293 36.7072C32.2903 39.3777 28.3346 41 24 41C14.6112 41 7 33.3888 7 24C7 19.6654 8.62226 15.7097 11.2928 12.707L35.293 36.7072ZM36.7072 35.293L12.707 11.2928C15.7097 8.62226 19.6654 7 24 7C33.3888 7 41 14.6112 41 24C41 28.3346 39.3777 32.2903 36.7072 35.293Z" fill="black"/>
</svg>

<svg
  xmlns="http://www.w3.org/2000/svg"
  width="24"
  height="24"
  viewBox="0 0 24 24"
  fill="none"
  stroke="currentColor"
  stroke-width="2"
  stroke-linecap="round"
  stroke-linejoin="round"
>
  <path d="m21.347 25.674-1.92-1.919a2.96 2.96 0 0 0-.148 1.854l.68 2.953c.21.907-.827 1.583-1.573 1.025l-.485-.363c-2.184-1.634-5.239.258-4.749 2.94l.26 1.42 1.967-.36-.26-1.419c-.163-.894.856-1.525 1.584-.98l.485.363c2.238 1.675 5.349-.352 4.72-3.076z" />
  <path
    fill-rule="evenodd"
    d="M29.634 25.476A2.95 2.95 0 0 0 30 23.554l-.294-2.13c1.25.106 2.664-.418 3.763-1.517 1.76-1.758 2.044-4.324.637-5.731s-3.973-1.122-5.731.637c-1.669 1.668-2.011 4.063-.84 5.506l.484 3.509.005.038zm.155-9.25c1.288-1.287 2.555-.984 2.903-.636s.652 1.615-.637 2.903c-1.288 1.289-2.555.985-2.903.637s-.652-1.615.637-2.903"
    clip-rule="evenodd"
  />
  <path
    fill-rule="evenodd"
    d="M43 24c0 10.493-8.507 19-19 19S5 34.493 5 24 13.507 5 24 5s19 8.507 19 19m-7.707 12.707A16.94 16.94 0 0 1 24 41c-9.389 0-17-7.611-17-17 0-4.335 1.622-8.29 4.293-11.293zm1.414-1.414-24-24A16.94 16.94 0 0 1 24 7c9.389 0 17 7.611 17 17 0 4.335-1.622 8.29-4.293 11.293"
    clip-rule="evenodd"
  />
</svg>
